app/assets/images/remix_icon/user/skull-2-fill.svg

<svg viewBox="0 0 24 24" xmlns="http://www.w3.org/2000/svg"><path d="M12 2C17.5228 2 22 6.47715 22 12V15.7639C22 16.5215 21.572 17.214 20.8944 17.5528L18 19V20C18 21.5977 16.7511 22.9037 15.1763 22.9949L14.9499 23.0004C14.9718 22.8926 14.9868 22.7823 14.9943 22.67L15 22.5V22C15 20.9456 14.1841 20.0818 13.1493 20.0055L13 20H11C9.94564 20 9.08183 20.8159 9.00549 21.8507L9 22V22.5C9 22.6714 9.01725 22.8387 9.0501 23.0004L9 23C7.34315 23 6 21.6569 6 20V19L3.10557 17.5528C2.428 17.214 2 16.5215 2 15.7639V12C2 6.47715 6.47715 2 12 2ZM8 11C6.89543 11 6 11.8954 6 13C6 14.1046 6.89543 15 8 15C9.10457 15 10 14.1046 10 13C10 11.8954 9.10457 11 8 11ZM16 11C14.8954 11 14 11.8954 14 13C14 14.1046 14.8954 15 16 15C17.1046 15 18 14.1046 18 13C18 11.8954 17.1046 11 16 11Z"/></svg>

<svg xmlns="http://www.w3.org/2000/svg" viewBox="0 0 24 24">
    <g>
        <path fill="none" d="M0 0h24v24H0z"/>
        <path d="M12 2c5.523 0 10 4.477 10 10v3.764a2 2 0 0 1-1.106 1.789L18 19v1a3 3 0 0 1-2.824 2.995L14.95 23a2.5 2.5 0 0 0 .044-.33L15 22.5V22a2 2 0 0 0-1.85-1.995L13 20h-2a2 2 0 0 0-1.995 1.85L9 22v.5c0 .171.017.339.05.5H9a3 3 0 0 1-3-3v-1l-2.894-1.447A2 2 0 0 1 2 15.763V12C2 6.477 6.477 2 12 2zm-4 9a2 2 0 1 0 0 4 2 2 0 0 0 0-4zm8 0a2 2 0 1 0 0 4 2 2 0 0 0 0-4z"/>
    </g>
</svg>
